X:1
T:Brown, CM
T:Brown, CM
T:William Batchelder Bradbury, 1844
T:Public Domain Courtesy of the Cyber Hymnal™
C:William Batchelder Bradbury, 1844
Z:Public Domain
Z:Courtesy of the Cyber Hymnal™
%%score ( 1 2 ) ( 3 4 )
L:1/8
Q:1/4=115
M:4/4
K:Bb
V:1 treble 
V:2 treble 
V:3 bass 
V:4 bass 
V:1
 [DF]2 | [DB]3 [Ec] [Fd]2 [FB]2 | [EG]3 [FA] [GB]2 [EG]2 | [DF]2 [CF]2 [FB]2 [Fd]2 | [Fc]6 F2 | %5
 [Fd]3 [Fc] [FB]2 [Fd]2 | [Ec]3 [EB] [EG]2 ([GB][EG]) | [DF]2 [DB]2 [CA]2 [Ec]2 | [DB]6 |] %9
V:2
 x2 | x8 | x8 | x8 | x6 F2 | x8 | x8 | x8 | x6 |] %9
V:3
 [B,,B,]2 | [B,,F,]3 [B,,F,] [B,,F,]2 [D,B,]2 | [E,B,]3 [E,B,] [E,B,]2 [E,B,]2 | %3
 [F,B,]2 A,2 [D,B,]2 [B,,B,]2 | [F,A,]6 [F,A,]2 | [B,,B,]3 [C,A,] [D,B,]2 [B,,B,]2 | %6
 [E,G,]3 [E,G,] [E,B,]2 [E,B,]2 | [F,B,]2 F,2 [F,,F,]2 [F,,F,]2 | [B,,F,]6 |] %9
V:4
 x2 | x8 | x8 | x2 (F,E,) x4 | x8 | x8 | x8 | x2 F,2 x4 | x6 |] %9

